X:7258
T:House that Jack built,The. CJF.168
M:6/8
L:1/8
Q:120
S: C.J.Fox MS, 1829/33, Beverley,E.Yorks.
R:Jig
O:England
A:East Yorkshire
B:Kidson Coll.Mitchell Lib.M1805
N:I have added the final rest to allow repeats to scan. "C J Fox" is
N:written in the stave, after the tune.  - PJH.
Z:P J Headford 2000
K:C
G|(Ge).dc2B|(AB).cG2G|G<ccd2G|(Bd)dd2G|!(Ge).dc2c|ABcG2G|Adc {c/}BAB|
d3-c2||!d|dcB BAG|c2d e2g|gfe fAd|c3-B2d|!(dc).B (BA).G|c2de2g|
gfe fdB|(B3c2)||!G|e2c {d/}cBc|f2d {e/}d^cd|B2g {a/}g^fg|e2c cBc|!
e2c {d/}cBc|f2d {e}d^cd|dedB2G|e3cz||


